static/fa/svgs/solid/code.svg

<svg xmlns="http://www.w3.org/2000/svg" viewBox="0 0 640 512"><!--! Font Awesome Free 6.1.1 by @fontawesome - https://fontawesome.com License - https://fontawesome.com/license/free (Icons: CC BY 4.0, Fonts: SIL OFL 1.1, Code: MIT License) Copyright 2022 Fonticons, Inc.--><path d="m414.8 40.79-128 448.01c-4.9 17-22.6 26.8-39.6 22-17-4.9-26.8-22.6-22-39.6l128-447.99c4.9-16.994 22.6-26.834 39.6-21.978 17 4.855 26.8 22.568 22 39.558zm103.8 80.61 112 112c12.5 12.5 12.5 32.7 0 45.2l-112 112c-12.5 12.5-32.7 12.5-45.2 0s-12.5-32.7 0-45.2l89.3-89.4-89.3-89.4c-12.5-12.5-12.5-32.7 0-45.2s32.7-12.5 45.2 0zm-352 45.2L77.25 256l89.35 89.4c12.5 12.5 12.5 32.7 0 45.2s-32.7 12.5-45.2 0L9.372 278.6c-12.496-12.5-12.496-32.7 0-45.2l112.028-112c12.5-12.5 32.7-12.5 45.2 0s12.5 32.7 0 45.2z"/></svg>

<svg xmlns="http://www.w3.org/2000/svg" viewBox="0 0 640 512"><!--! Font Awesome Free 6.1.1 by @fontawesome - https://fontawesome.com License - https://fontawesome.com/license/free (Icons: CC BY 4.0, Fonts: SIL OFL 1.1, Code: MIT License) Copyright 2022 Fonticons, Inc. --><path d="M414.8 40.79L286.8 488.8C281.9 505.8 264.2 515.6 247.2 510.8C230.2 505.9 220.4 488.2 225.2 471.2L353.2 23.21C358.1 6.216 375.8-3.624 392.8 1.232C409.8 6.087 419.6 23.8 414.8 40.79H414.8zM518.6 121.4L630.6 233.4C643.1 245.9 643.1 266.1 630.6 278.6L518.6 390.6C506.1 403.1 485.9 403.1 473.4 390.6C460.9 378.1 460.9 357.9 473.4 345.4L562.7 256L473.4 166.6C460.9 154.1 460.9 133.9 473.4 121.4C485.9 108.9 506.1 108.9 518.6 121.4V121.4zM166.6 166.6L77.25 256L166.6 345.4C179.1 357.9 179.1 378.1 166.6 390.6C154.1 403.1 133.9 403.1 121.4 390.6L9.372 278.6C-3.124 266.1-3.124 245.9 9.372 233.4L121.4 121.4C133.9 108.9 154.1 108.9 166.6 121.4C179.1 133.9 179.1 154.1 166.6 166.6V166.6z"/></svg>
